X: 859
T: Hide and Go Seek
B:O'Neill's 859
Z:Transcribed by Dan G. Petersen, dangp@post6.tele.dk
M:6/8
L:1/8
K:Em
d|BGE EGE|EGE BGE|DFA dcB|AFD DBc|
BGE EGE|EGE dcB|ABA FGA|BGE E2:|
B|eBe gfe|bge efg|ded fed|afd def|
efe gfe|bge ega|BcB AGA|BGE E2:|


